X:1
T: Lady Elgin's Courtship
C:
R:Reel
Q: 232
K:Bb
M:4/4
L:1/8
d2|:B2 FB DB FB|B2 ((3dcB) Ac cd|B2 FB DB FB|((3ABc) ce dB Bd|
B2 FB DB FB|B2 ((3dcB) Ac cd|B2 FB DB FB|((3ABc) ce dB d2:|
|:BB dB fB dB|BB dB Ac cd|BB dB fB dB|((3ABc) ce dB Bd|
BB dB fB dB|BB dB Ac cd|BB dB fB df|1gb ac' b2 d2:|2gb ac' b2||
